images/icon-clock.svg

<svg width="16" height="16" viewBox="0 0 16 16" fill="none" xmlns="http://www.w3.org/2000/svg">
<g clip-path="url(#clip0_1_29)">
<path d="M7.99334 1.33334C4.31334 1.33334 1.33334 4.32001 1.33334 8.00001C1.33334 11.68 4.31334 14.6667 7.99334 14.6667C11.68 14.6667 14.6667 11.68 14.6667 8.00001C14.6667 4.32001 11.68 1.33334 7.99334 1.33334ZM8 13.3333C5.05334 13.3333 2.66667 10.9467 2.66667 8.00001C2.66667 5.05334 5.05334 2.66668 8 2.66668C10.9467 2.66668 13.3333 5.05334 13.3333 8.00001C13.3333 10.9467 10.9467 13.3333 8 13.3333ZM8.33334 4.66668H7.33334V8.66668L10.8333 10.7667L11.3333 9.94668L8.33334 8.16668V4.66668Z" fill="#888888"/>
</g>
<defs>
<clipPath id="clip0_1_29">
<rect width="16" height="16" fill="white"/>
</clipPath>
</defs>
</svg>

<svg xmlns="http://www.w3.org/2000/svg" width="16" height="16" fill="none"><g clip-path="url(#a)"><path fill="#888" d="M7.993 1.333A6.663 6.663 0 0 0 1.333 8c0 3.68 2.98 6.667 6.66 6.667A6.67 6.67 0 0 0 14.667 8a6.67 6.67 0 0 0-6.674-6.667Zm.007 12A5.332 5.332 0 0 1 2.667 8 5.332 5.332 0 0 1 8 2.667 5.332 5.332 0 0 1 13.333 8 5.332 5.332 0 0 1 8 13.333Zm.333-8.666h-1v4l3.5 2.1.5-.82-3-1.78v-3.5Z"/></g><defs><clipPath id="a"><path fill="#fff" d="M0 0h16v16H0z"/></clipPath></defs></svg>
